X:1
T:Title
%%score { ( 1 3 ) | ( 2 4 ) }
L:1/8
M:4/4
K:Ab
V:1 treble nm="Grand Piano"
V:3 treble 
V:2 bass 
V:4 bass 
V:1
 z4 z2[Q:1/4=100] [A,C][B,D] | [CE][CE][CE][CE] [CA]2 [CA][Ec] | %2
 [FB][FA][EG][DF] [CE]2 [A,C][B,D] | [CE][CE][CE][CE] [EA]2 [DG][CA] | B6[K:bass] z2[K:treble] | %5
[M:3/4] [CE][CE] [CE][CE] [CA]2 |[M:1/4] [CA][Ec] |[M:4/4] [FB][FA][EG][DF] [CE]2 [CE][CE] | %8
 [A,DF][A,DF][DFB][DFB] [CE]2 [B,DG]2 |[M:3/4] [A,CA]6 |[M:1/4] c>d |[M:4/4] e6 z2 | %12
 A6[K:bass] z2 | [A,EA][A,EA][A,EA][A,EA] [A,EA]2 [DG][CA] |[M:7/8] [EB]2 [Ge]2 [Ge]3 | %15
[M:1/4] c>d |[M:4/4] e6 z2 | A6[K:bass] z2 | [A,DF][A,DF][DFB][DFB] [CE]2 [B,DG]2 |[M:3/4] A6 |] %20
V:2
 z4 z2 [A,,E,][A,,E,] | [A,,A,][A,,A,][A,,A,][A,,A,] [A,,E,]2 [A,,E,][A,,A,] | %2
 [D,A,][D,A,][D,A,][D,A,] [A,,A,]2 [A,,E,][A,,E,] | %3
 [A,,A,][A,,A,][A,,A,][A,,A,] [C,A,]2 [B,,E,][A,,A,] | [G,E]6 z2 | %5
[M:3/4] [A,,A,][A,,A,] [A,,A,][A,,A,] [A,,E,]2 |[M:1/4] [A,,E,][A,,A,] | %7
[M:4/4] [D,A,][D,A,][D,A,][D,A,] [A,,A,]2 [A,,A,][A,,A,] | D,D,B,,B,, E,2 E,2 |[M:3/4] A,,6 | %10
[M:1/4][K:treble] A>B |[M:4/4] c6 z2 | C6[K:bass] z2 | C,C,C,C, C,2 [B,,E,][A,,E,] | %14
[M:7/8] [E,G,]2 [E,B,]2 [E,B,]3 |[M:1/4][K:treble] A>B |[M:4/4] c6 z2 | C6[K:bass] z2 | %18
 D,D,B,,B,, E,2 E,2 |[M:3/4] z2 F,2 E,2 |] %20
V:3
 x8 | x8 | x8 | x8 | z2[K:bass] E,>E, E,D,C[K:treble]D |[M:3/4] x6 |[M:1/4] x2 |[M:4/4] x8 | x8 | %9
[M:3/4] x6 |[M:1/4] x2 |[M:4/4] z2 E>E E2 c>B | z2[K:bass] E,>E, E,2 EE | x8 |[M:7/8] x7 | %15
[M:1/4] x2 |[M:4/4] z2 E>E E2 c>B | z2[K:bass] E,>E, E,2 [A,CE][A,CE] | x8 |[M:3/4] [A,C]2 D2 C2 |] %20
V:4
 x8 | x8 | x8 | x8 | E,2 z2 z2 [C,E,A,][C,E,B,] |[M:3/4] x6 |[M:1/4] x2 |[M:4/4] x8 | x8 | %9
[M:3/4] x6 |[M:1/4][K:treble] x2 |[M:4/4] z2 A,>A, A,2 E>D | z2[K:bass] A,,>A,, A,,2 E,E, | x8 | %14
[M:7/8] x7 |[M:1/4][K:treble] x2 |[M:4/4] z2 A,>A, A,2 E>D | z2[K:bass] A,,>A,, A,,2 A,,A,, | x8 | %19
[M:3/4] A,,6 |] %20

